X:131
T:Neapolitan Dance. VWMLa.131
%%VWML:Anon2-3049-p74-0
F:http://www.vwml.org/record/Anon2/3049/p74
S:Anon. MS, late 18thC, Vaughan Williams Mem. Library
O:England;Yorkshire
Z:vmp/efdss.Simon Wilson. Reviewed PJH 2008.
M:2/4
L:1/8
Q:1/4=160
K:G
(B/c/d) cB|AGFG|(e/f/g) fe|e2d2|\
(B/c/d) cB|AGFG|ege^c|d2D2:|
|:(G/A/B) (G/A/B)|.G2.G2|.G2.e2|.d2z2|\
dBBB|cAAA|BGAB|G2z2:|
|:(DG).G.G|(EG).G.G|ABcA|cBAG|\
(DG).G.G|(EG).G.G|AGAB|G2z2:|
|:"P"GABc|.d2.B2|.c2.A2|.B2.G2|\
.c2.A2|.B2.G2|AGAB|G2z2:|
|:"^F"G[DG]DD|E2D2|Dddd|e2d2|\
G[DG]DD|E2Dc|BGAF|G2z2:|
